!!!COM: Heeney, Patrick
!!!CDT: 1881-1911
!!!OTL: National Anthem, Irish Republic - Amhran na bhFiann (The Soldier's Song)
!!!ENC: Davis, Matthew J.
!!Vocal Line Only
**kern
*clefG2
*k[b-e-]
*B-:
*M4/4
=1-
4.b-
8cc
4dd
4b-
=2
2.f
4f
=3
4.g
8g
4e-
4g
=4
2f
2f
=5
2b-
2a-
=6
2.g
8a-
8b-
=7
4.cc
8dd
4cc
4g
=8
2.a-
4r
=9
4.b-
8cc
4dd
4b-
=10
2.f
4f
=11
4.g
8g
4e-
4g
=12
2f
4f
4f
=13
2a-
4.a-
8a-
=14
4a-
4a-
4.g
8g
=15
2.f
4f
=16
4.e-
8e-
8e-
8c
8d
8e-
=17
4.f
8g
4f
4b-
=18
4.a-
8g
4a-
4g
=19
4f
4e-
4c
4f
=20
4d
8B-
8d
4.f
8f
=21
8g
8a-
8b-
8cc
4dd
8b-
8g
=22
8f
4b-
8dd
4.cc
8b-
=23
2.b-
4r
==|!
*-
